assets/img/index__hero-geo.svg

<svg xmlns="http://www.w3.org/2000/svg" viewBox="0 0 24 24" enable-background="new 0 0 24 24"><style type="text/css">.st0{fill:#FFFFFF;}</style><path class="st0" d="M12.8 23.8l-1.4-2.2c-.1-.1-1.6-2.4-3.1-5.1-2.2-4-3.3-6.7-3.3-8.4 0-4.3 3.5-7.8 7.8-7.8s7.8 3.5 7.8 7.8c0 1.7-1.1 4.5-3.3 8.4-1.5 2.7-3 5-3.1 5.1l-1.4 2.2zm0-22.8c-3.9 0-7 3.1-7 7 0 1.6 1 4.2 3.2 8 1.5 2.7 3 5 3.1 5.1l.8 1.2.8-1.2c.1-.1 1.6-2.4 3.1-5.1 2.1-3.8 3.2-6.4 3.2-8-.2-3.8-3.3-7-7.2-7zm0 11.2c-2.3 0-4.2-1.9-4.2-4.2s1.9-4.2 4.2-4.2 4.2 1.9 4.2 4.2-1.8 4.2-4.2 4.2zm0-7.6c-1.9 0-3.4 1.5-3.4 3.4s1.5 3.4 3.4 3.4 3.4-1.5 3.4-3.4-1.5-3.4-3.4-3.4zM12.8 23.9l-1.5-2.3s-1.6-2.4-3.1-5.2c-2.2-3.9-3.3-6.6-3.3-8.3 0-4.4 3.5-7.9 7.9-7.9s7.9 3.5 7.9 7.9c0 1.7-1.1 4.5-3.3 8.4-1.5 2.7-3.1 5.1-3.1 5.2l-1.5 2.2zm0-23.6c-4.3 0-7.7 3.5-7.7 7.7 0 1.7 1.1 4.4 3.3 8.4 1.5 2.8 3.1 5.1 3.1 5.1l1.4 2.1 1.4-2.1c.1-.1 1.6-2.4 3.1-5.1 2.2-3.9 3.3-6.7 3.3-8.4-.1-4.2-3.6-7.7-7.9-7.7zm0 22.2l-.8-1.3c-.1-.1-1.6-2.4-3.1-5.1-2.1-3.8-3.2-6.5-3.2-8 0-4 3.2-7.1 7.1-7.1s7.1 3.2 7.1 7.1c0 1.6-1 4.2-3.2 8-1.5 2.7-3 5-3.1 5.1l-.8 1.3zm0-21.4c-3.8 0-6.9 3.1-6.9 7 0 1.6 1 4.2 3.2 8 1.5 2.7 3 5 3.1 5.1l.7 1.1.7-1.1c.1-.1 1.6-2.4 3.1-5.1 2.1-3.8 3.2-6.4 3.2-8-.1-3.9-3.3-7-7.1-7zm0 11.2c-2.4 0-4.3-1.9-4.3-4.3s1.9-4.3 4.3-4.3 4.3 1.9 4.3 4.3-1.9 4.3-4.3 4.3zm0-8.5c-2.3 0-4.2 1.9-4.2 4.2s1.9 4.2 4.2 4.2 4.2-1.9 4.2-4.2-1.9-4.2-4.2-4.2zm0 7.7c-1.9 0-3.5-1.6-3.5-3.5s1.6-3.5 3.5-3.5 3.5 1.6 3.5 3.5-1.5 3.5-3.5 3.5zm0-6.9c-1.8 0-3.3 1.6-3.3 3.4s1.5 3.4 3.4 3.4 3.4-1.5 3.4-3.4-1.6-3.4-3.5-3.4z"/></svg>

<?xml version="1.0" encoding="utf-8"?>
<!-- Generator: Adobe Illustrator 19.2.0, SVG Export Plug-In . SVG Version: 6.00 Build 0)  -->
<svg version="1.1" id="Layer_1" xmlns="http://www.w3.org/2000/svg" xmlns:xlink="http://www.w3.org/1999/xlink" x="0px" y="0px"
	 viewBox="0 0 24 24" style="enable-background:new 0 0 24 24;" xml:space="preserve">
<style type="text/css">
	.st0{fill:#FFFFFF;}
</style>
<g>
	<g>
		<g>
			<path class="st0" d="M12.8,23.8l-1.4-2.2c-0.1-0.1-1.6-2.4-3.1-5.1C6.1,12.5,5,9.8,5,8.1c0-4.3,3.5-7.8,7.8-7.8s7.8,3.5,7.8,7.8
				c0,1.7-1.1,4.5-3.3,8.4c-1.5,2.7-3,5-3.1,5.1L12.8,23.8z M12.8,1c-3.9,0-7,3.1-7,7c0,1.6,1,4.2,3.2,8c1.5,2.7,3,5,3.1,5.1
				l0.8,1.2l0.8-1.2c0.1-0.1,1.6-2.4,3.1-5.1c2.1-3.8,3.2-6.4,3.2-8C19.8,4.2,16.7,1,12.8,1z M12.8,12.2c-2.3,0-4.2-1.9-4.2-4.2
				s1.9-4.2,4.2-4.2s4.2,1.9,4.2,4.2S15.2,12.2,12.8,12.2z M12.8,4.6c-1.9,0-3.4,1.5-3.4,3.4s1.5,3.4,3.4,3.4s3.4-1.5,3.4-3.4
				S14.7,4.6,12.8,4.6z"/>
			<path class="st0" d="M12.8,23.9l-1.5-2.3c0,0-1.6-2.4-3.1-5.2C6,12.5,4.9,9.8,4.9,8.1c0-4.4,3.5-7.9,7.9-7.9s7.9,3.5,7.9,7.9
				c0,1.7-1.1,4.5-3.3,8.4c-1.5,2.7-3.1,5.1-3.1,5.2L12.8,23.9z M12.8,0.3c-4.3,0-7.7,3.5-7.7,7.7c0,1.7,1.1,4.4,3.3,8.4
				c1.5,2.8,3.1,5.1,3.1,5.1l1.4,2.1l1.4-2.1c0.1-0.1,1.6-2.4,3.1-5.1c2.2-3.9,3.3-6.7,3.3-8.4C20.6,3.8,17.1,0.3,12.8,0.3z
				 M12.8,22.5L12,21.2c-0.1-0.1-1.6-2.4-3.1-5.1c-2.1-3.8-3.2-6.5-3.2-8C5.7,4.1,8.9,1,12.8,1s7.1,3.2,7.1,7.1c0,1.6-1,4.2-3.2,8
				c-1.5,2.7-3,5-3.1,5.1L12.8,22.5z M12.8,1.1C9,1.1,5.9,4.2,5.9,8.1c0,1.6,1,4.2,3.2,8c1.5,2.7,3,5,3.1,5.1l0.7,1.1l0.7-1.1
				c0.1-0.1,1.6-2.4,3.1-5.1c2.1-3.8,3.2-6.4,3.2-8C19.8,4.2,16.6,1.1,12.8,1.1z M12.8,12.3c-2.4,0-4.3-1.9-4.3-4.3s1.9-4.3,4.3-4.3
				s4.3,1.9,4.3,4.3S15.2,12.3,12.8,12.3z M12.8,3.8c-2.3,0-4.2,1.9-4.2,4.2s1.9,4.2,4.2,4.2S17,10.3,17,8S15.1,3.8,12.8,3.8z
				 M12.8,11.5c-1.9,0-3.5-1.6-3.5-3.5s1.6-3.5,3.5-3.5s3.5,1.6,3.5,3.5S14.8,11.5,12.8,11.5z M12.8,4.6C11,4.6,9.5,6.2,9.5,8
				s1.5,3.4,3.4,3.4s3.4-1.5,3.4-3.4S14.7,4.6,12.8,4.6z"/>
		</g>
	</g>
</g>
</svg>
